X:1
L:1/8
M:3/4
K:D
""^Verse 1"" A2 | D4 FA | B2 A2 (AF) | D2 G2 FF | (F E2) F E z | D2 D2 FA | B2 (AB) (cd) | F G3 E2 | 
 D4 ||""^Verses 2-4"" AF | D2 D2 (FA) | B2 A2 AF | D2 G2 F2 | (F E3) FE | D2 D2 FA | B2 A2 Bc | 
 d2 c2 (Bc) | (B A3) (Bc) | d2 c2 B2 | A2 A2 (GE) D2 G2 FF | (F D3) FE | D2 D2 FA | B2 (AB) (cd) | 
 F G3 E2 | D4 z2 |]
